X: 371
T: Ma yanxishan
L: 1/8
M: 2/4
K: Bb
c' c'/ c'/ b g [I:setbarnb 1]| 
c' c' b g | 
c'/ c'/ c'/ f'/ b g | 
e c f c | 
f> g c' b | 
c' g/ f/ e e | 
g g/ c/ g/ f/ e/ c/ | 
c Bc2 | 
f f/ g< c' b/ | 
c' g/ f/ e e | 
g/ g/ g/ c'/ g/ f/ e/ c/ | 
c Bc2 |]

@@@ Tune index: 9245
